src/icons/outline/metrics/plus-sign.svg

<svg width="24" height="24" viewBox="0 0 24 24" fill="none" xmlns="http://www.w3.org/2000/svg">
<g clip-path="url(#clip0_4191_805)">
<path d="M21.2625 11.2625H12.7375V2.73746C12.7375 2.33432 12.4031 2 12 2C11.5969 2 11.2625 2.33432 11.2625 2.73746V11.2625H2.73746C2.33432 11.2625 2 11.5969 2 12C2 12.4031 2.33432 12.7375 2.73746 12.7375H11.2625V21.2625C11.2625 21.6657 11.5969 22 12 22C12.4031 22 12.7375 21.6657 12.7375 21.2625V12.7375H21.2625C21.6657 12.7375 22 12.4031 22 12C22 11.5969 21.6657 11.2625 21.2625 11.2625Z" fill="#3C3B44"/>
</g>
<defs>
<clipPath id="clip0_4191_805">
<rect width="24" height="24" fill="white"/>
</clipPath>
</defs>
</svg>

<svg xmlns="http://www.w3.org/2000/svg" width="24" height="24" fill="none" viewBox="0 0 24 24"><g clip-path="url(#a)"><path fill="currentColor" d="M21.263 11.263h-8.526V2.736A.743.743 0 0 0 12 2a.743.743 0 0 0-.738.737v8.526H2.737A.743.743 0 0 0 2 12c0 .403.334.738.737.738h8.526v8.525c0 .403.334.737.737.737a.743.743 0 0 0 .738-.738v-8.524h8.525A.743.743 0 0 0 22 12a.743.743 0 0 0-.738-.738"/></g><defs><clipPath id="a"><path fill="currentColor" d="M0 0h24v24H0z"/></clipPath></defs></svg>
